packages/foundations/assets/icons/functional/images/layout/zoom_out_32.svg

<svg width="32" height="32" viewBox="0 0 32 32" fill="none" xmlns="http://www.w3.org/2000/svg">
<g clip-path="url(#clip0_185_1527)">
<path fill-rule="evenodd" clip-rule="evenodd" d="M11.9999 1.99994C17.5313 1.99994 22 6.46884 21.9998 11.9999C22 14.4063 21.1563 16.5938 19.75 18.3438L29.7188 28.2813C29.9063 28.4688 30 28.7188 30 29C30 29.5625 29.5313 30 28.9688 30C28.75 30 28.5 29.9375 28.2813 29.7188L18.3438 19.75C16.5938 21.1563 14.4063 22 11.9999 21.9998C6.4688 22 2 17.5313 2 11.9999C2 6.46884 6.4688 1.99994 11.9999 1.99994ZM11.9999 3.99994C7.5938 3.99994 4 7.59384 4 11.9999C4 16.4063 7.5938 20 11.9999 19.9998C16.4063 20 20 16.4063 19.9998 11.9999C20 7.59384 16.4063 3.99994 11.9999 3.99994ZM15.9999 10.9999C16.5313 11 16.9999 11.4688 16.9999 11.9999C16.9999 12.5313 16.5313 13 15.9999 12.9999H7.9999C7.4688 13 6.9999 12.5313 6.9999 11.9999C6.9999 11.4686 7.4688 11 7.9999 10.9999H15.9999Z" fill="#1A1C1F"/>
</g>
<defs>
<clipPath id="clip0_185_1527">
<rect width="32" height="32" fill="white"/>
</clipPath>
</defs>
</svg>

<svg xmlns="http://www.w3.org/2000/svg" width="32" height="32" fill="none"><g clip-path="url(#a)"><path fill="#1A1C1F" fill-rule="evenodd" d="M12 2c5.531 0 10 4.469 10 10 0 2.406-.844 4.594-2.25 6.344l9.969 9.937A1 1 0 0 1 30 29c0 .563-.469 1-1.031 1a.94.94 0 0 1-.688-.281l-9.937-9.969C16.594 21.156 14.406 22 12 22 6.469 22 2 17.53 2 12A9.99 9.99 0 0 1 12 2m0 2c-4.406 0-8 3.594-8 8s3.594 8 8 8 8-3.594 8-8-3.594-8-8-8m4 7c.531 0 1 .469 1 1s-.469 1-1 1H8c-.531 0-1-.469-1-1s.469-1 1-1z" clip-rule="evenodd"/></g><defs><clipPath id="a"><path fill="#fff" d="M0 0h32v32H0z"/></clipPath></defs></svg>
